fs/call_dismiss_24_filled.svg

<svg viewBox="0 0 24 24" fill="none" xmlns="http://www.w3.org/2000/svg" height="1em" width="1em">
  <path d="M21.7806 2.21967C22.0735 2.51256 22.0735 2.98744 21.7806 3.28033L18.5609 6.5L21.7806 9.71967C22.0735 10.0126 22.0735 10.4874 21.7806 10.7803C21.4877 11.0732 21.0128 11.0732 20.7199 10.7803L17.5002 7.56066L14.2806 10.7803C13.9877 11.0732 13.5128 11.0732 13.2199 10.7803C12.927 10.4874 12.927 10.0126 13.2199 9.71967L16.4396 6.5L13.2199 3.28033C12.927 2.98744 12.927 2.51256 13.2199 2.21967C13.5128 1.92678 13.9877 1.92678 14.2806 2.21967L17.5002 5.43934L20.7199 2.21967C21.0128 1.92678 21.4877 1.92678 21.7806 2.21967ZM9.36737 3.31232L10.2271 5.33967C10.6018 6.22312 10.3939 7.26203 9.71313 7.90815L7.81881 9.70616C7.93569 10.7816 8.2972 11.8406 8.90334 12.8832C9.50948 13.9257 10.2665 14.7905 11.1744 15.4776L13.4496 14.7189C14.312 14.4313 15.2512 14.7618 15.7802 15.539L17.0125 17.3495C17.6275 18.2529 17.5169 19.4993 16.7538 20.2653L15.9361 21.0862C15.1222 21.9033 13.9597 22.1997 12.8843 21.8643C10.3454 21.0723 8.01109 18.7211 5.88132 14.8107C3.74845 10.8945 2.9957 7.57189 3.62307 4.84289C3.88707 3.69457 4.70458 2.78009 5.77209 2.43899L6.84868 2.09498C7.8575 1.77263 8.93535 2.29358 9.36737 3.31232Z" fill="#212121"/>
</svg>

<svg viewBox="0 0 24 24" fill="none" xmlns="http://www.w3.org/2000/svg" height="1em" width="1em">
  <path d="M21.78 2.22a.75.75 0 0 1 0 1.06L18.56 6.5l3.22 3.22a.75.75 0 1 1-1.06 1.06L17.5 7.56l-3.22 3.22a.75.75 0 0 1-1.06-1.06l3.22-3.22-3.22-3.22a.75.75 0 1 1 1.06-1.06l3.22 3.22 3.22-3.22a.75.75 0 0 1 1.06 0ZM9.368 3.312l.86 2.028c.375.883.167 1.922-.514 2.568L7.82 9.706c.117 1.076.478 2.135 1.084 3.177a8.678 8.678 0 0 0 2.271 2.595l2.276-.76c.862-.287 1.801.044 2.33.821l1.232 1.81c.616.904.505 2.15-.258 2.916l-.818.821c-.814.817-1.976 1.114-3.052.778-2.539-.792-4.873-3.143-7.003-7.053-2.133-3.916-2.885-7.24-2.258-9.968.264-1.148 1.082-2.063 2.15-2.404l1.076-.344c1.008-.322 2.086.199 2.518 1.217Z" fill="#212121"/>
</svg>
